Newaita-dark/actions/scalable/favorite-genres-amarok.svg

<?xml version="1.0" encoding="UTF-8"?>
<svg xmlns="http://www.w3.org/2000/svg" xmlns:xlink="http://www.w3.org/1999/xlink" width="512pt" height="512pt" viewBox="0 0 512 512" version="1.1">
<g id="surface1">
<path style=" stroke:none;fill-rule:nonzero;fill:rgb(74.117649%,74.117649%,74.117649%);fill-opacity:1;" d="M 254.023438 25.167969 C 218.292969 25.167969 184.683594 31.304688 155.21875 42.15625 C 153.707031 42.714844 152.207031 43.285156 150.71875 43.863281 C 120.941406 55.488281 95.636719 72 76.984375 91.871094 C 76.050781 92.867188 75.132812 93.867188 74.234375 94.878906 C 54.007812 117.605469 42.335938 144.488281 42.335938 173.351562 L 42.335938 258.023438 C 42.335938 374.453125 232.855469 490.878906 254.023438 490.878906 C 275.191406 490.878906 465.710938 374.453125 465.710938 258.023438 L 465.710938 173.351562 C 465.710938 117.550781 422.09375 69.148438 357.328125 43.863281 C 355.839844 43.285156 354.339844 42.714844 352.828125 42.15625 C 342.253906 38.261719 331.140625 34.972656 319.589844 32.359375 C 298.960938 27.691406 276.929688 25.167969 254.023438 25.167969 Z M 254.023438 56.921875 C 353.707031 56.921875 433.957031 108.847656 433.957031 173.351562 L 433.957031 242.148438 C 433.957031 342.699219 328.113281 416.789062 254.023438 459.128906 C 179.933594 416.789062 74.089844 353.285156 74.089844 242.148438 L 74.089844 173.351562 C 74.089844 108.847656 154.339844 56.921875 254.023438 56.921875 Z M 254.023438 56.921875 "/>
<path style=" stroke:none;fill-rule:nonzero;fill:rgb(100%,43.921569%,26.274511%);fill-opacity:0.984314;" d="M 254.023438 120.429688 C 268.890625 120.429688 280.320312 175.371094 292.347656 184.109375 C 304.375 192.84375 360.160156 186.742188 364.753906 200.878906 C 369.347656 215.015625 320.625 242.867188 316.03125 257.003906 C 311.4375 271.140625 334.484375 322.3125 322.457031 331.046875 C 310.433594 339.785156 268.890625 302.054688 254.023438 302.054688 C 239.160156 302.054688 197.617188 339.785156 185.589844 331.046875 C 173.5625 322.3125 196.609375 271.140625 192.015625 257.003906 C 187.421875 242.867188 138.703125 215.015625 143.292969 200.878906 C 147.886719 186.742188 203.675781 192.84375 215.699219 184.109375 C 227.726562 175.371094 239.160156 120.429688 254.023438 120.429688 Z M 254.023438 120.429688 "/>
</g>
</svg>

<svg xmlns="http://www.w3.org/2000/svg" width="512pt" height="512pt" viewBox="0 0 512 512"><path d="M254.023 25.168c-35.73 0-69.34 6.137-98.804 16.988a290.56 290.56 0 0 0-4.5 1.707C120.94 55.488 95.637 72 76.984 91.871c-.933.996-1.851 1.996-2.75 3.008-20.226 22.726-31.898 49.61-31.898 78.473v84.671c0 116.43 190.52 232.856 211.687 232.856 21.168 0 211.688-116.426 211.688-232.856v-84.671c0-55.801-43.617-104.204-108.383-129.489a290.56 290.56 0 0 0-4.5-1.707c-10.574-3.894-21.687-7.183-33.238-9.797-20.63-4.668-42.66-7.191-65.567-7.191zm0 31.754c99.684 0 179.934 51.926 179.934 116.43v68.796c0 100.551-105.844 174.641-179.934 216.98C179.933 416.79 74.09 353.286 74.09 242.149v-68.796c0-64.504 80.25-116.43 179.933-116.43zm0 0" fill="#bdbdbd"/><path d="M254.023 120.43c14.868 0 26.297 54.941 38.325 63.68 12.027 8.734 67.812 2.632 72.406 16.769 4.594 14.137-44.129 41.988-48.723 56.125-4.594 14.137 18.453 65.308 6.426 74.043-12.023 8.738-53.566-28.992-68.434-28.992-14.863 0-56.406 37.73-68.433 28.992-12.028-8.735 11.02-59.906 6.426-74.043-4.594-14.137-53.313-41.988-48.723-56.125 4.594-14.137 60.383-8.035 72.406-16.77 12.028-8.738 23.461-63.68 38.324-63.68zm0 0" fill="#ff7043" fill-opacity=".984"/></svg>
